svgs/thin/hand-love.svg

<svg xmlns="http://www.w3.org/2000/svg" viewBox="0 0 512 512"><!--! Font Awesome Pro 6.3.0 by @fontawesome - https://fontawesome.com License - https://fontawesome.com/license (Commercial License) Copyright 2023 Fonticons, Inc. --><path d="M480 112C480 85.53 458.5 64 432 64S384 85.53 384 112v76.48C375.5 180.8 364.3 176 352 176c-13.9 0-26.33 6.031-35.1 15.5C310.1 173.2 292.6 160 272 160c-12.34 0-23.49 4.809-32 12.48V48C240 21.53 218.5 0 192 0S144 21.53 144 48V256c0 4.422 3.594 8 8 8S160 260.4 160 256V48c0-17.64 14.34-32 32-32s32 14.36 32 32v232c0 26.47 21.53 48 48 48c13.9 0 26.33-6.031 35.1-15.5C313.9 330.8 331.4 344 352 344c26.47 0 48-21.53 48-48V112c0-17.64 14.34-32 32-32s32 14.36 32 32l-.002 268.9c0 63.44-51.63 115.1-115.1 115.1H256c-42.5 0-85.53-20.72-109.8-53L55.22 329.6c-4.727-6.286-7.218-13.76-7.218-21.49c0-29.37 26.98-36.13 35.94-36.13c17.78 0 26.31 11.56 29.94 15.05c.25 .3477 .1562 .8203 .4687 1.133l64 64C179.9 353.7 181.9 354.5 184 354.5c5.719 0 8-5.094 8-8c0-2.047-.7813-4.094-2.344-5.656L125.6 276.8c-.0176-.0176 .0176 .0176 0 0c-.001-.001 0 .001 0 0c0-1.705-15.98-20.84-41.63-20.84c-29.14 0-51.99 23.73-51.99 52.11c0 11.19 3.608 22.04 10.57 31.3l91.03 113.4C160.6 488.8 208.6 512 256 512h92.94c72.28 0 131.1-58.78 131.1-131.1L480 112zM272 312c-17.66 0-32-14.36-32-32V208c0-17.64 14.34-32 32-32s32 14.36 32 32v72C304 297.6 289.7 312 272 312zM384 296c0 17.64-14.34 32-32 32s-32-14.36-32-32V224c0-17.64 14.34-32 32-32s32 14.36 32 32V296z"/></svg>

<svg xmlns="http://www.w3.org/2000/svg" viewBox="0 0 512 512"><!-- Font Awesome Pro 6.0.0-alpha2 by @fontawesome - https://fontawesome.com License - https://fontawesome.com/license (Commercial License) --><path d="M480.001 112C480.001 85.531 458.47 64 432.001 64S384.001 85.531 384.001 112V188.484C375.489 180.809 364.339 176 352.001 176C338.103 176 325.671 182.031 316.898 191.502C310.136 173.174 292.65 160 272.001 160C259.663 160 248.513 164.809 240.001 172.484V48C240.001 21.531 218.47 0 192.001 0S144.001 21.531 144.001 48V256C144.001 260.422 147.595 264 152.001 264S160.001 260.422 160.001 256V48C160.001 30.359 174.345 16 192.001 16S224.001 30.359 224.001 48V280C224.001 306.469 245.532 328 272.001 328C285.9 328 298.331 321.969 307.105 312.498C313.866 330.826 331.353 344 352.001 344C378.47 344 400.001 322.469 400.001 296V112C400.001 94.359 414.345 80 432.001 80S464.001 94.359 464.001 112L463.999 380.938C463.999 444.375 412.374 496 348.939 496H256.001C213.501 496 170.47 475.281 146.251 443L55.222 329.594C50.495 323.308 48.003 315.832 48.003 308.104C48.003 278.738 74.979 271.972 83.94 271.972C101.724 271.972 110.252 283.532 113.876 287.023C114.126 287.371 114.032 287.844 114.345 288.156L178.345 352.156C179.907 353.719 181.939 354.5 184.001 354.5C189.721 354.5 192.001 349.406 192.001 346.5C192.001 344.453 191.22 342.406 189.657 340.844L125.657 276.844C125.64 276.826 125.614 276.836 125.597 276.818C125.596 276.817 125.596 276.816 125.596 276.815C125.596 275.11 109.641 255.99 83.986 255.99C54.85 255.99 32 279.722 32 308.102C32 319.294 35.608 330.146 42.566 339.406L133.595 452.812C160.595 488.75 208.626 512 256.001 512H348.939C421.218 512 479.999 453.219 479.999 380.938L480.001 112ZM272.001 312C254.345 312 240.001 297.641 240.001 280V208C240.001 190.359 254.345 176 272.001 176S304.001 190.359 304.001 208V280C304.001 297.641 289.657 312 272.001 312ZM384.001 296C384.001 313.641 369.657 328 352.001 328S320.001 313.641 320.001 296V224C320.001 206.359 334.345 192 352.001 192S384.001 206.359 384.001 224V296Z"/></svg>
